X:18
T: The Red Box
L: 1/8
M: 4/4
K: Dmix
|: "D"v(af)u(ge fd) ~d2 | u(cABG) AD ~D2 | v(FDF)(G A2) (AB | "C"c)u(BAB) (cd)(eg) |
   "D"v(af)u(ge fd) ~d2 | u(cABG) AD ~D2 | v(FDF)(G A2) Au(B | "C"cA)G(E "D"ED) ~D2 :|
|: "C"c2 u(ce gece) | "D"d2 (df af)d(f | "G"g2) vbu(g "D"f2) a(f | "Em"e^d)v(ef) "C"(ec) (AB |
   "C"c2) u(ce ge)ce | "D"d2 (df af)d(f | "G"g2 ag) "D"fd ~d2 | "C"v(cA)(GE "D"ED) ~D2 :|

